X:1
T:Fort Gibson
S:Oscar "Os" Scholes (1891-1984, Mountain View, Arkansas)
M:C|
L:1/8
R:Reel
F: https://www.slippery-hill.com/recording/fort-gibson
Z:Transcribed  by Andrew Kuntz
K:D
f2 fe d2 fg|abag d2d2|edcB A2A2|efec A2A2|
f2fe d2fg|abaf [d2f2][d2f2]|edcB A2Bc|+slide+d3e d4:||
D2D2 DFAF|G2G2 GABd|A2A2 Acec| d2d2 AGFE|
D2D2 DFAF|G2G2 GABd|A2A2 Acec|d3e d4:|]

